public/assets/youtube_green.svg

<?xml version="1.0" encoding="UTF-8"?>
<svg width="92px" height="66px" viewBox="0 0 92 66" version="1.1" xmlns="http://www.w3.org/2000/svg" xmlns:xlink="http://www.w3.org/1999/xlink">
    <!-- Generator: Sketch 52.6 (67491) - http://www.bohemiancoding.com/sketch -->
    <title>Item810</title>
    <desc>Created with Sketch.</desc>
    <g id="PROD" stroke="none" stroke-width="1" fill="none" fill-rule="evenodd">
        <g id="1_Desktop-/-HP-_2" transform="translate(-779.000000, -5251.000000)" fill="#5FEB98">
            <g id="RS" transform="translate(0.000000, 4743.000000)">
                <g id="Group-4" transform="translate(360.000000, 504.000000)">
                    <path d="M456.882353,53.1808511 L456.882353,25.858156 L478.529412,39.5200256 L456.882353,53.1808511 Z M509.077409,14.2396647 C508.019409,10.2089502 504.901864,7.03493445 500.943773,5.95771517 C493.769341,4 465,4 465,4 C465,4 436.230659,4 429.056227,5.95771517 C425.098136,7.03493445 421.980591,10.2089502 420.922591,14.2396647 C419,21.544872 419,36.787234 419,36.787234 C419,36.787234 419,52.0295961 420.922591,59.3348034 C421.980591,63.3655178 425.098136,66.5395336 429.056227,67.6172817 C436.230659,69.5744681 465,69.5744681 465,69.5744681 C465,69.5744681 493.769341,69.5744681 500.943773,67.6172817 C504.901864,66.5395336 508.019409,63.3655178 509.077409,59.3348034 C511,52.0295961 511,36.787234 511,36.787234 C511,36.787234 511,21.544872 509.077409,14.2396647 Z" id="Item810"></path>
                </g>
            </g>
        </g>
    </g>
</svg>

<?xml version="1.0" encoding="UTF-8"?>
<svg version="1.1" viewBox="0 0 92 66" xmlns="http://www.w3.org/2000/svg">
<title>Item810</title>
<desc>Created with Sketch.</desc>
<g fill="none" fill-rule="evenodd">
<g transform="translate(-779 -5251)" fill="#5FEB98">
<g transform="translate(0 4743)">
<g transform="translate(360 504)">
<path d="m456.88 53.181v-27.323l21.647 13.662-21.647 13.661zm52.195-38.941c-1.058-4.0307-4.1755-7.2047-8.1336-8.2819-7.1744-1.9577-35.944-1.9577-35.944-1.9577s-28.769 0-35.944 1.9577c-3.9581 1.0772-7.0756 4.2512-8.1336 8.2819-1.9226 7.3052-1.9226 22.548-1.9226 22.548s0 15.242 1.9226 22.548c1.058 4.0307 4.1755 7.2047 8.1336 8.2825 7.1744 1.9572 35.944 1.9572 35.944 1.9572s28.769 0 35.944-1.9572c3.9581-1.0777 7.0756-4.2518 8.1336-8.2825 1.9226-7.3052 1.9226-22.548 1.9226-22.548s0-15.242-1.9226-22.548z"/>
</g>
</g>
</g>
</g>
</svg>
